build/documents/SendSignSolid.svg

<svg xmlns="http://www.w3.org/2000/svg" fill="none" viewBox="0 0 24 24" focusable="false"><path d="M0 0H24V24H0z"/><path fill="#74767B" fill-rule="evenodd" d="M16.5699 8.41835C16.3313 8.65774 15.9461 8.6654 15.6982 8.43567C15.4388 8.19534 15.4288 7.78843 15.6772 7.53678C16.8299 6.36882 18.0984 5.11352 18.0984 5.11352L16.0099 5.21469C15.6704 5.2404 15.3687 4.98569 15.3359 4.63972C15.3226 4.45641 15.3848 4.29084 15.5028 4.16412C15.6077 4.05148 15.7412 3.97865 15.9109 3.9658L19.5007 3.74639C19.9011 3.71171 20.239 4.02639 20.2329 4.4282L20.1816 7.9519C20.1736 8.29933 19.8907 8.57486 19.5503 8.57337C19.2029 8.56533 18.9208 8.2895 18.9289 7.94207L19.009 5.97082L16.5699 8.41835ZM7.40555 4.98084C7.91335 4.47305 8.73666 4.47305 9.24446 4.98085L10.3775 6.11391C10.6483 6.38471 10.6512 6.82285 10.3841 7.09723L8.36502 9.17075C8.09277 9.45035 7.64447 9.45333 7.36853 9.17739L6.24864 8.0575C5.74084 7.5497 5.74084 6.7264 6.24864 6.2186L7.40555 4.98084ZM9.27147 10.1036C9.0043 10.3779 9.00721 10.8161 9.27801 11.0869L16.7234 18.5323C17.1211 18.9299 17.6225 19.2079 18.1705 19.3343L19.902 19.7339C20.8383 19.95 21.1369 19.5705 20.9208 18.6342L20.5212 16.9027C20.3948 16.3547 20.1169 15.8533 19.7192 15.4556L12.287 8.0234C12.0111 7.74745 11.5628 7.75044 11.2905 8.03003L9.27147 10.1036ZM6.64024 19.9092C7.82122 19.9092 8.54196 19.3011 9.09456 18.8349L9.12679 18.8077C9.69383 18.3297 10.0938 18.0123 10.7816 18.0123C12.0535 18.0123 12.6801 18.7912 13.1493 19.3744C13.2452 19.4936 13.3346 19.6046 13.4215 19.6992C13.6645 19.9634 14.0757 19.9807 14.34 19.7377C14.6042 19.4947 14.6214 19.0835 14.3784 18.8192C14.3458 18.7837 14.3009 18.725 14.243 18.6493C13.831 18.1105 12.7617 16.7123 10.7816 16.7123C9.59469 16.7123 8.8719 17.322 8.31758 17.7896L8.2889 17.8138C7.72059 18.2929 7.32318 18.6092 6.64024 18.6092C5.25612 18.6092 4.65269 17.7839 4.27298 17.2646C4.2358 17.2137 4.20076 17.1658 4.16735 17.1219C3.95 16.8362 3.54219 16.7808 3.25648 16.9981C2.97078 17.2155 2.91537 17.6233 3.13272 17.909C3.15762 17.9417 3.18673 17.9823 3.2204 18.0293C3.60182 18.5611 4.56871 19.9092 6.64024 19.9092Z"/></svg>

<svg xmlns="http://www.w3.org/2000/svg" fill="none" viewBox="0 0 24 24" focusable="false"><path fill="#74767B" fill-rule="evenodd" d="M15.69 8.43c.25.23.64.22.87-.02L19 5.97l-.08 1.97c0 .34.28.62.63.63.34 0 .62-.28.63-.62l.05-3.53c0-.4-.33-.71-.73-.68l-3.59.22c-.17.01-.31.09-.41.2-.12.13-.18.29-.17.47.03.35.34.61.67.58l2.09-.1s-1.27 1.25-2.42 2.42c-.25.25-.24.66.02.9M7.4 4.98c.51-.51 1.33-.51 1.84 0l1.13 1.13c.27.27.28.71.01.98L8.36 9.17a.7.7 0 0 1-1 0L6.24 8.05c-.5-.51-.5-1.33 0-1.84zm1.87 5.12c-.27.27-.27.71 0 .98l7.45 7.45c.4.39.9.67 1.45.8l1.73.4c.93.22 1.23-.16 1.02-1.1l-.4-1.73c-.13-.55-.41-1.05-.81-1.45l-7.43-7.43a.69.69 0 0 0-.99.01zm-2.63 9.8c1.18 0 1.9-.6 2.45-1.07l.03-.03c.57-.48.97-.79 1.66-.79 1.27 0 1.9.78 2.36 1.36.1.12.19.23.28.32.24.27.65.29.91.04a.64.64 0 0 0 .04-.92c-.03-.03-.07-.09-.13-.17-.41-.53-1.48-1.93-3.46-1.93-1.19 0-1.91.61-2.47 1.07l-.03.03c-.56.48-.96.79-1.64.79-1.39 0-1.99-.82-2.37-1.34-.04-.05-.07-.1-.11-.14a.653.653 0 0 0-.91-.13c-.28.22-.34.63-.12.91q.03.06.09.12c.38.54 1.34 1.88 3.42 1.88"/></svg>
